packages/icons/svg/Media_BookStore_64px.svg

<svg xmlns="http://www.w3.org/2000/svg" viewBox="0 0 64 64"><path d="M57 5H20a2 2 0 00-2 2v25H6.5A1.5 1.5 0 005 33.5V51a8 8 0 007.14 8 1.49 1.49 0 00.36 0H51a8 8 0 008-8V7a2 2 0 00-2-2zM8 51V35h10v16a5 5 0 01-10 0zm48 0a5 5 0 01-5 5H19.24A8 8 0 0021 51V8h35z"/><path d="M28 25h22a1 1 0 001-1V14a1 1 0 00-1-1H28a1 1 0 00-1 1v10a1 1 0 001 1zm1-10h20v8H29zM28 34h22a1 1 0 000-2H28a1 1 0 000 2zM28 41h22a1 1 0 000-2H28a1 1 0 000 2zM28 48h12a1 1 0 000-2H28a1 1 0 000 2z"/></svg>

<svg xmlns="http://www.w3.org/2000/svg" viewBox="0 0 64 64"><defs></defs><g id="Icon"><path  d="M57,5H20a2,2,0,0,0-2,2V32H6.5A1.5,1.5,0,0,0,5,33.5V51a8,8,0,0,0,7.14,8,1.49,1.49,0,0,0,.36,0H51a8,8,0,0,0,8-8V7A2,2,0,0,0,57,5ZM8,51V35H18V51A5,5,0,0,1,8,51Zm48,0a5,5,0,0,1-5,5H19.24A8,8,0,0,0,21,51V8H56Z"/><path  d="M28,25H50a1,1,0,0,0,1-1V14a1,1,0,0,0-1-1H28a1,1,0,0,0-1,1V24A1,1,0,0,0,28,25Zm1-10H49v8H29Z"/><path  d="M28,34H50a1,1,0,0,0,0-2H28a1,1,0,0,0,0,2Z"/><path  d="M28,41H50a1,1,0,0,0,0-2H28a1,1,0,0,0,0,2Z"/><path  d="M28,48H40a1,1,0,0,0,0-2H28a1,1,0,0,0,0,2Z"/></g></svg>
